packages/axiom-materials/src/icon_svgs/facebook-mono.svg

<svg height="16" viewBox="0 0 16 16" width="16" xmlns="http://www.w3.org/2000/svg"><path d="m15.1111111 0h-14.22222221c-.49091978 0-.88888889.39796911-.88888889.88888889v14.22222221c0 .4909198.39796911.8888889.88888889.8888889h7.65777778v-6.18666667h-2.07777778v-2.42222222h2.07777778v-1.77777778c0-2.06666666 1.26222222-3.19333333 3.11111113-3.19333333.6220113-.00181779 1.2436639.03008085 1.8622222.09555556v2.15111111h-1.2755556c-1.0022222 0-1.1977777.47777777-1.1977777 1.17777777v1.54222223h2.3977777l-.3111111 2.42222222h-2.0866666v6.19111111h4.0644444c.4909198 0 .8888889-.3979691.8888889-.8888889v-14.22222221c0-.49091978-.3979691-.88888889-.8888889-.88888889z"/></svg>

<?xml version="1.0" encoding="UTF-8"?>
<svg width="16px" height="16px" viewBox="0 0 16 16" version="1.1" xmlns="http://www.w3.org/2000/svg" xmlns:xlink="http://www.w3.org/1999/xlink">
    <g id="facebook" stroke="none" stroke-width="1" fill="#000000" fill-rule="evenodd">
        <g fill-rule="nonzero">
            <path d="M15.1111111,0 L0.888888889,0 C0.397969111,-3.00601667e-17 6.01203334e-17,0.397969111 0,0.888888889 L0,15.1111111 C6.01203334e-17,15.6020309 0.397969111,16 0.888888889,16 L8.54666667,16 L8.54666667,9.81333333 L6.46888889,9.81333333 L6.46888889,7.39111111 L8.54666667,7.39111111 L8.54666667,5.61333333 C8.54666667,3.54666667 9.80888889,2.42 11.6577778,2.42 C12.2797891,2.41818221 12.9014417,2.45008085 13.52,2.51555556 L13.52,4.66666667 L12.2444444,4.66666667 C11.2422222,4.66666667 11.0466667,5.14444444 11.0466667,5.84444444 L11.0466667,7.38666667 L13.4444444,7.38666667 L13.1333333,9.80888889 L11.0466667,9.80888889 L11.0466667,16 L15.1111111,16 C15.6020309,16 16,15.6020309 16,15.1111111 L16,0.888888889 C16,0.397969111 15.6020309,3.00601667e-17 15.1111111,0 Z" id="background"></path>
        </g>
    </g>
</svg>
